logo/visual-studio-code.svg

<?xml version="1.0" encoding="UTF-8"?>
<svg width="256px" height="254px" viewBox="0 0 256 254" version="1.1" xmlns="http://www.w3.org/2000/svg" xmlns:xlink="http://www.w3.org/1999/xlink" preserveAspectRatio="xMidYMid">
    <defs>
        <path d="M180.82764,252.605272 C184.843951,254.170159 189.42406,254.069552 193.478224,252.11917 L245.979142,226.856851 C251.495593,224.202221 255.003889,218.618034 255.003889,212.49296 L255.003889,41.1971845 C255.003889,35.0719113 251.495593,29.4886211 245.979142,26.8339907 L193.478224,1.57068551 C188.158006,-0.989256713 181.931329,-0.362230036 177.262566,3.0323459 C176.595173,3.51727166 175.959655,4.05869672 175.363982,4.65536598 L74.8565893,96.3498444 L31.0778002,63.1181557 C27.0024197,60.0246398 21.3020866,60.2780499 17.5170718,63.7211005 L3.47578059,76.4937075 C-1.15402423,80.7052561 -1.15933349,87.9889043 3.46431538,92.2072265 L41.430759,126.844525 L3.46431538,161.482221 C-1.15933349,165.700742 -1.15402423,172.984291 3.47578059,177.19584 L17.5170718,189.967949 C21.3020866,193.411497 27.0024197,193.664509 31.0778002,190.571591 L74.8565893,157.339404 L175.363982,249.034221 C176.953772,250.625007 178.82048,251.823326 180.82764,252.605272 Z M191.291764,68.9559518 L115.029663,126.844525 L191.291764,184.733396 L191.291764,68.9559518 Z" id="path-1"></path>
        <linearGradient x1="50.0000484%" y1="-3.91645412e-07%" x2="50.0000484%" y2="99.999921%" id="linearGradient-3">
            <stop stop-color="#FFFFFF" offset="0%"></stop>
            <stop stop-color="#FFFFFF" stop-opacity="0" offset="100%"></stop>
        </linearGradient>
    </defs>
    <g>
				<mask id="mask-2" fill="white">
						<use xlink:href="#path-1"></use>
				</mask>
				<g></g>
				<path d="M246.134784,26.873337 L193.593025,1.57523773 C187.51178,-1.35300582 180.243173,-0.117807811 175.469819,4.65514684 L3.46641717,161.482221 C-1.16004072,165.700742 -1.1547215,172.984291 3.47789235,177.19584 L17.5276804,189.967949 C21.3150858,193.411497 27.0189053,193.664509 31.0966765,190.571591 L238.228667,33.4363005 C245.177523,28.1646927 255.158535,33.1209324 255.158535,41.8432608 L255.158535,41.2332436 C255.158535,35.11066 251.651235,29.5293619 246.134784,26.873337 Z" fill="#0065A9" fill-rule="nonzero" mask="url(#mask-2)"></path>
				<path d="M246.134784,226.816011 L193.593025,252.11419 C187.51178,255.041754 180.243173,253.806579 175.469819,249.034221 L3.46641717,92.2070273 C-1.16004072,87.9888047 -1.1547215,80.7049573 3.47789235,76.4935082 L17.5276804,63.7209012 C21.3150858,60.2778506 27.0189053,60.0243409 31.0966765,63.1179565 L238.228667,220.252649 C245.177523,225.524058 255.158535,220.568416 255.158535,211.84549 L255.158535,212.456104 C255.158535,218.57819 251.651235,224.159388 246.134784,226.816011 Z" fill="#007ACC" fill-rule="nonzero" mask="url(#mask-2)"></path>
				<path d="M193.428324,252.134497 C187.345086,255.060069 180.076479,253.823898 175.303125,249.050544 C181.184153,254.931571 191.240868,250.765843 191.240868,242.448334 L191.240868,11.2729623 C191.240868,2.95542269 181.184153,-1.21005093 175.303125,4.67135981 C180.076479,-0.102038107 187.345086,-1.3389793 193.428324,1.58667934 L245.961117,26.8500144 C251.481553,29.5046448 254.991841,35.0879351 254.991841,41.2132082 L254.991841,212.509283 C254.991841,218.634357 251.481553,224.217548 245.961117,226.872178 L193.428324,252.134497 Z" fill="#1F9CF0" fill-rule="nonzero" mask="url(#mask-2)"></path>
				<path d="M180.827889,252.605272 C184.8442,254.169163 189.424309,254.069552 193.477476,252.11917 L245.978395,226.855855 C251.495842,224.201225 255.004138,218.618034 255.004138,212.49296 L255.004138,41.1969853 C255.004138,35.0717121 251.495842,29.4884219 245.979391,26.8337915 L193.477476,1.57052613 C188.158255,-0.989423064 181.931578,-0.362396387 177.261819,3.03217656 C176.595422,3.51710232 175.959904,4.05852738 175.363235,4.65519664 L74.8565395,96.3496452 L31.0777504,63.1179565 C27.0024695,60.0244405 21.3020368,60.2779503 17.517022,63.7209012 L3.4757806,76.4935082 C-1.15402423,80.7050569 -1.15933349,87.9888047 3.46431539,92.2071269 L41.4308088,126.844525 L3.46431539,161.482221 C-1.15933349,165.700742 -1.15402423,172.984291 3.4757806,177.19584 L17.517022,189.967949 C21.3020368,193.411497 27.0024695,193.664509 31.0777504,190.571591 L74.8565395,157.339404 L175.363235,249.034221 C176.953025,250.625007 178.820729,251.823326 180.827889,252.605272 Z M191.292013,68.9557526 L115.029912,126.844525 L191.292013,184.733396 L191.292013,68.9557526 Z" fill-opacity="0.25" fill="url(#linearGradient-3)" mask="url(#mask-2)"></path>
		</g>
</svg>

<svg viewBox="0 0 256 254" xmlns="http://www.w3.org/2000/svg" xmlns:xlink="http://www.w3.org/1999/xlink"><defs><mask id="a"><use fill="#FFF" xlink:href="#f"/></mask><mask id="b"><use fill="#FFF" xlink:href="#f"/></mask><mask id="c"><use fill="#FFF" xlink:href="#f"/></mask><linearGradient id="d" x1="50%" x2="50%" y1="-.001%" y2="99.999%"><stop offset="0%" stop-color="#FFF"/><stop offset="100%" stop-color="#FFF" stop-opacity="0"/></linearGradient><mask id="e"><use fill="#FFF" xlink:href="#f"/></mask><path id="f" d="M180.82 252.6c4.01 1.56 8.59 1.46 12.65-.49l52.5-25.27c5.51-2.66 9.02-8.24 9.02-14.37V41.17c0-6.13-3.51-11.71-9.03-14.37L193.45 1.53c-5.33-2.56-11.55-1.94-16.22 1.46 -.67.48-1.31 1.02-1.9 1.62L74.82 96.3 31.04 63.06c-4.08-3.1-9.78-2.85-13.57.6L3.42 76.43c-4.63 4.21-4.64 11.49-.02 15.71l37.96 34.63L3.39 161.4c-4.63 4.21-4.62 11.5.01 15.71l14.04 12.77c3.78 3.44 9.48 3.69 13.56.6l43.77-33.24 100.5 91.69c1.58 1.59 3.45 2.78 5.46 3.57Zm10.46-183.65l-76.27 57.88 76.26 57.88V68.93Z"/></defs><path mask="url(#a)" fill="#0065A9" d="M246.13 26.87l-52.55-25.3c-6.09-2.93-13.35-1.7-18.13 3.07L3.44 161.46c-4.63 4.21-4.63 11.5.01 15.71l14.04 12.77c3.78 3.44 9.49 3.69 13.56.6L238.18 33.4c6.94-5.28 16.92-.32 16.92 8.4v-.62c0-6.13-3.51-11.71-9.03-14.36Z"/><path mask="url(#b)" fill="#007ACC" d="M246.13 226.81l-52.55 25.29c-6.09 2.92-13.35 1.69-18.13-3.08L3.44 92.19c-4.63-4.22-4.63-11.51.01-15.72l14.04-12.78c3.78-3.45 9.49-3.7 13.56-.61l207.13 157.13c6.94 5.27 16.92.31 16.92-8.41v.61c0 6.12-3.51 11.7-9.03 14.35Z"/><path mask="url(#c)" fill="#1F9CF0" d="M193.42 252.13c-6.09 2.92-13.36 1.68-18.13-3.09 5.88 5.88 15.93 1.71 15.93-6.61V11.25c0-8.32-10.06-12.49-15.94-6.61 4.77-4.78 12.04-6.02 18.12-3.09l52.53 25.26c5.52 2.65 9.03 8.23 9.03 14.36v171.29c0 6.12-3.52 11.7-9.04 14.36l-52.54 25.26Z"/><path mask="url(#e)" fill="url(#d)" fill-opacity=".25" d="M180.82 252.6c4.01 1.56 8.59 1.46 12.64-.49l52.5-25.27c5.51-2.66 9.02-8.24 9.02-14.37V41.17c0-6.13-3.51-11.71-9.03-14.37L193.44 1.53c-5.32-2.56-11.55-1.94-16.22 1.46 -.67.48-1.31 1.02-1.9 1.62L74.81 96.3 31.03 63.06c-4.08-3.1-9.78-2.85-13.57.6L3.41 76.43c-4.63 4.21-4.64 11.49-.02 15.71l37.96 34.63L3.38 161.4c-4.63 4.21-4.62 11.5.01 15.71l14.04 12.77c3.78 3.44 9.48 3.69 13.56.6l43.77-33.24 100.5 91.69c1.58 1.59 3.45 2.78 5.46 3.57Zm10.46-183.65l-76.27 57.88 76.26 57.88V68.93Z"/></svg>
